icon-themes/sifr_svg/cmd/lc_tablemodefixprop.svg

<svg viewBox="0 0 24 24" xmlns="http://www.w3.org/2000/svg"><path d="m2 2v10h20v-10zm2 2h5v3h-5zm6 0h4v3h-4zm5 0h5v3h-5zm-11 4h5v3h-5zm6 0h4v3h-4zm5 0h5v3h-5zm-13 6v9h2v-3h2v-2h-2v-4zm7 0a2 2 0 0 0 -2 2 2 2 0 0 0 2 2 2 2 0 0 0 2-2 2 2 0 0 0 -2-2zm5 0-6 8v1h1l6-8v-1zm6 0v4h-2v2h2v3h2v-9zm-6 5a2 2 0 0 0 -2 2 2 2 0 0 0 2 2 2 2 0 0 0 2-2 2 2 0 0 0 -2-2z" fill="#555753"/></svg>

<svg viewBox="0 0 24 24" xmlns="http://www.w3.org/2000/svg">
  <path
     style="fill:#555753"
     d="M 2 2 L 2 12 L 22 12 L 22 2 L 2 2 z M 4 4 L 9 4 L 9 7 L 4 7 L 4 4 z M 10 4 L 14 4 L 14 7 L 10 7 L 10 4 z M 15 4 L 20 4 L 20 7 L 15 7 L 15 4 z M 4 8 L 9 8 L 9 11 L 4 11 L 4 8 z M 10 8 L 14 8 L 14 11 L 10 11 L 10 8 z M 15 8 L 20 8 L 20 11 L 15 11 L 15 8 z M 2 14 L 2 23 L 4 23 L 4 20 L 6 20 L 6 18 L 4 18 L 4 14 L 2 14 z M 9 14 A 2 2 0 0 0 7 16 A 2 2 0 0 0 9 18 A 2 2 0 0 0 11 16 A 2 2 0 0 0 9 14 z M 14 14 L 8 22 L 8 23 L 9 23 L 15 15 L 15 14 L 14 14 z M 20 14 L 20 18 L 18 18 L 18 20 L 20 20 L 20 23 L 22 23 L 22 14 L 20 14 z M 14 19 A 2 2 0 0 0 12 21 A 2 2 0 0 0 14 23 A 2 2 0 0 0 16 21 A 2 2 0 0 0 14 19 z "
     />
</svg>
